src/assets/images/beat-boxer/SPEED_BAG_BLUE.svg

<svg width="139" height="412" viewBox="0 0 139 412" fill="none" xmlns="http://www.w3.org/2000/svg">
<g clip-path="url(#clip0_9279_206966)">
<path d="M92.5304 221.22H46.1204C52.7004 263.64 38.8804 292.78 25.9604 309.86C18.4404 319.81 14.5604 332.2 15.0304 344.74C15.5204 357.75 21.6204 370.95 31.7704 380.94C42.2604 391.28 55.6204 396.97 69.3804 396.97C99.3304 396.97 123.69 372.59 123.69 342.62C123.69 331.33 120.27 320.5 113.79 311.32C89.2604 276.53 89.6304 240.87 92.5204 221.22H92.5304ZM69.3504 388.68C43.7104 388.68 22.9204 367.89 22.9204 342.25C22.9204 316.61 43.7104 295.82 69.3504 295.82C94.9904 295.82 115.78 316.61 115.78 342.25C115.78 367.89 94.9904 388.68 69.3504 388.68Z" fill="white"/>
<path d="M69.3499 310.81C52.0199 310.81 37.9199 324.91 37.9199 342.24C37.9199 359.57 52.0199 373.67 69.3499 373.67C86.6799 373.67 100.78 359.57 100.78 342.24C100.78 324.91 86.6799 310.81 69.3499 310.81ZM69.3499 359.65C59.7299 359.65 51.9399 351.85 51.9399 342.24C51.9399 332.63 59.7399 324.83 69.3499 324.83C78.9599 324.83 86.7599 332.63 86.7599 342.24C86.7599 351.85 78.9599 359.65 69.3499 359.65Z" fill="white"/>
<path d="M69.3499 295.81C43.7099 295.81 22.9199 316.6 22.9199 342.24C22.9199 367.88 43.7099 388.67 69.3499 388.67C94.9899 388.67 115.78 367.88 115.78 342.24C115.78 316.6 94.9899 295.81 69.3499 295.81ZM69.3499 373.68C52.0199 373.68 37.9199 359.58 37.9199 342.25C37.9199 324.92 52.0199 310.82 69.3499 310.82C86.6799 310.82 100.78 324.92 100.78 342.25C100.78 359.58 86.6799 373.68 69.3499 373.68Z" fill="#2F51AE"/>
<path d="M73.3336 359.202C82.6917 356.993 88.4875 347.617 86.2788 338.258C84.07 328.9 74.6932 323.105 65.3351 325.313C55.9769 327.522 50.1812 336.899 52.3899 346.257C54.5986 355.615 63.9754 361.411 73.3336 359.202Z" fill="#2F51AE"/>
<path d="M107.72 221.16C111.63 220.92 114.74 217.67 114.74 213.69C114.74 209.71 111.39 206.21 107.26 206.21H93.4403C96.1003 201.9 97.6403 196.82 97.6403 191.38C97.6403 178.35 88.8303 167.38 76.8403 164.09V7.5C76.8403 3.36 73.4803 0 69.3403 0C65.2003 0 61.8403 3.36 61.8403 7.5V164.1C49.8503 167.39 41.0403 178.36 41.0403 191.39C41.0403 196.83 42.5803 201.91 45.2403 206.22H31.4203C27.3003 206.22 23.9403 209.57 23.9403 213.7C23.9403 217.83 27.0203 220.89 30.9003 221.16C37.5503 259.64 25.4403 285.67 13.9903 300.81C4.40026 313.52 -0.559741 329.32 0.0502587 345.31C0.690259 362.1 8.41026 378.98 21.2503 391.63C34.5703 404.75 51.6603 411.97 69.3903 411.97C107.61 411.97 138.7 380.86 138.7 342.62C138.7 328.21 134.33 314.4 126.06 302.68C103.21 270.28 105.09 236.74 107.73 221.17L107.72 221.16ZM61.8503 180.41V182.11C61.8503 186.25 65.2103 189.61 69.3503 189.61C73.4903 189.61 76.8503 186.25 76.8503 182.11V180.41C80.3503 182.81 82.6503 186.83 82.6503 191.39C82.6503 198.72 76.6803 204.69 69.3503 204.69C62.0203 204.69 56.0503 198.72 56.0503 191.39C56.0503 186.84 58.3503 182.81 61.8503 180.41ZM69.3903 396.97C55.6303 396.97 42.2703 391.28 31.7803 380.94C21.6303 370.95 15.5303 357.75 15.0403 344.74C14.5603 332.2 18.4403 319.81 25.9703 309.86C38.8903 292.78 52.7103 263.64 46.1303 221.22H92.5403C89.6503 240.88 89.2803 276.53 113.81 311.32C120.29 320.5 123.71 331.32 123.71 342.62C123.71 372.59 99.3503 396.97 69.4003 396.97H69.3903Z" fill="#2F51AE"/>
</g>
<defs>
<clipPath id="clip0_9279_206966">
<rect width="138.7" height="411.97" fill="white"/>
</clipPath>
</defs>
</svg>

<?xml version="1.0" encoding="UTF-8"?><svg id="Layer_2" xmlns="http://www.w3.org/2000/svg" viewBox="0 0 138.7 411.97"><defs><style>.cls-1{fill:#fff;}.cls-2{fill:#3654a5;}</style></defs><g id="Layer_1-2"><g><g><path class="cls-1" d="M92.53,221.22H46.12c6.58,42.42-7.24,71.56-20.16,88.64-7.52,9.95-11.4,22.34-10.93,34.88,.49,13.01,6.59,26.21,16.74,36.2,10.49,10.34,23.85,16.03,37.61,16.03,29.95,0,54.31-24.38,54.31-54.35,0-11.29-3.42-22.12-9.9-31.3-24.53-34.79-24.16-70.45-21.27-90.1Zm-23.18,167.46c-25.64,0-46.43-20.79-46.43-46.43s20.79-46.43,46.43-46.43,46.43,20.79,46.43,46.43-20.79,46.43-46.43,46.43Z"/><path class="cls-1" d="M69.35,310.81c-17.33,0-31.43,14.1-31.43,31.43s14.1,31.43,31.43,31.43,31.43-14.1,31.43-31.43-14.1-31.43-31.43-31.43Zm0,48.84c-9.62,0-17.41-7.8-17.41-17.41s7.8-17.41,17.41-17.41,17.41,7.8,17.41,17.41-7.8,17.41-17.41,17.41Z"/></g><g><path class="cls-2" d="M69.35,295.81c-25.64,0-46.43,20.79-46.43,46.43s20.79,46.43,46.43,46.43,46.43-20.79,46.43-46.43-20.79-46.43-46.43-46.43Zm0,77.87c-17.33,0-31.43-14.1-31.43-31.43s14.1-31.43,31.43-31.43,31.43,14.1,31.43,31.43-14.1,31.43-31.43,31.43Z"/><circle class="cls-2" cx="69.35" cy="342.25" r="17.41" transform="translate(-76.78 25.09) rotate(-13.28)"/><path class="cls-2" d="M107.72,221.16c3.91-.24,7.02-3.49,7.02-7.47s-3.35-7.48-7.48-7.48h-13.82c2.66-4.31,4.2-9.39,4.2-14.83,0-13.03-8.81-24-20.8-27.29V7.5c0-4.14-3.36-7.5-7.5-7.5s-7.5,3.36-7.5,7.5V164.1c-11.99,3.29-20.8,14.26-20.8,27.29,0,5.44,1.54,10.52,4.2,14.83h-13.82c-4.12,0-7.48,3.35-7.48,7.48s3.08,7.19,6.96,7.46c6.65,38.48-5.46,64.51-16.91,79.65h0C4.4,313.52-.56,329.32,.05,345.31c.64,16.79,8.36,33.67,21.2,46.32,13.32,13.12,30.41,20.34,48.14,20.34,38.22,0,69.31-31.11,69.31-69.35,0-14.41-4.37-28.22-12.64-39.94-22.85-32.4-20.97-65.94-18.33-81.51Zm-45.87-40.75v1.7c0,4.14,3.36,7.5,7.5,7.5s7.5-3.36,7.5-7.5v-1.7c3.5,2.4,5.8,6.42,5.8,10.98,0,7.33-5.97,13.3-13.3,13.3s-13.3-5.97-13.3-13.3c0-4.55,2.3-8.58,5.8-10.98Zm7.54,216.56c-13.76,0-27.12-5.69-37.61-16.03-10.15-9.99-16.25-23.19-16.74-36.2-.48-12.54,3.4-24.93,10.93-34.88,12.92-17.08,26.74-46.22,20.16-88.64h46.41c-2.89,19.66-3.26,55.31,21.27,90.1,6.48,9.18,9.9,20,9.9,31.3,0,29.97-24.36,54.35-54.31,54.35Z"/></g></g></g></svg>
